X:1
T:O Native Music
T:O Native Music
T:Samuel Lover
C:Samuel Lover
L:1/8
M:3/4
K:A
V:1 treble 
V:1
 E | AA (F2 G)E | A>A (Ac) ez/e/ | (f>e) (ec) BA | (A/G/F/E/) E3- E | AA (F2 G)E | A>A (Ac) e>ze/ | %7
 (fe/d/ c2) (c/B/A/B/) | (Ac/B/) A2 z || c | (d>e) (f>d) B>zB/ | (c>d) (e>c) A>zA/ | GF dc BA | %13
 (A/G/F/)E/ (Ed/c/) (3cdB | AA (F2 G)E | A>A (A>c) e>ze/ | (f/e/d/c/) (e/d/B/G/) (E^D/E/) | %17
 (G/F/=E/B,/) A,3 || %18

